X:249
M:C|
L:1/8
K:A Minor
|:B|A<a a/a/a a>ge>a|g>ed>c B<GG<B|A<a a/a/a agea|g>ed>B c<A A:|
|:B|c>A A/A/A A,<A A/A/A|cA A/A/A G,<G dB|c>A A/A/A A,<A A<c|
|:c|A/A/A e>A a>A e<A|A/A/A eg B<G G>B|G/G/G B>G d<GB<G|
|:B,|CA,EA, AA,EA,|CA,EA, B,G,G,B,|CEA,B, C<EA^F|G>E D<C D<G,G:|
|:B|e<Ae<A a<Ae<A|c<Ae<A B<G G>B|c<eA<B c<e a>^f|1 aed<c B<G G:|2
a>edB c<A A|]

